assets/images/close-wh1.svg

<svg width="35" height="35" viewBox="0 0 35 35" fill="none" xmlns="http://www.w3.org/2000/svg">
<circle cx="17.5" cy="17.5" r="17" stroke="white" stroke-opacity="0.2"/>
<path fill-rule="evenodd" clip-rule="evenodd" d="M23.4602 22.753C23.6554 22.9483 23.6554 23.2649 23.4602 23.4602C23.2649 23.6554 22.9483 23.6554 22.753 23.4602L17.8137 18.5208L12.8744 23.4602C12.6791 23.6554 12.3625 23.6554 12.1673 23.4602C11.972 23.2649 11.972 22.9483 12.1673 22.753L17.1066 17.8137L12.1464 12.8536C11.9512 12.6583 11.9512 12.3417 12.1464 12.1464C12.3417 11.9512 12.6583 11.9512 12.8536 12.1464L17.8137 17.1066L22.7739 12.1464C22.9691 11.9512 23.2857 11.9512 23.481 12.1464C23.6762 12.3417 23.6762 12.6583 23.481 12.8536L18.5208 17.8137L23.4602 22.753Z" fill="white"/>
</svg>

<svg width="35" height="35" fill="none" xmlns="http://www.w3.org/2000/svg"><circle cx="17.5" cy="17.5" r="17" stroke="#fff" stroke-opacity=".2"/><path fill-rule="evenodd" clip-rule="evenodd" d="M23.46 22.753a.5.5 0 01-.707.707l-4.94-4.94-4.939 4.94a.5.5 0 01-.707-.707l4.94-4.94-4.96-4.96a.5.5 0 01.707-.707l4.96 4.96 4.96-4.96a.5.5 0 01.707.708l-4.96 4.96 4.94 4.939z" fill="#fff"/></svg>
